; G-Code generated by Simplify3D(R) Version 4.0.0
; Jan 16, 2025 at 8:39:05 PM
; Settings Summary
;   processName,Process1
;   applyToModels,soporte
;   profileName,Anet A8 (modified)
;   profileVersion,2016-12-16 13:19:45
;   baseProfile,
;   printMaterial,
;   printQuality,
;   printExtruders,
;   extruderName,Primary Extruder
;   extruderToolheadNumber,0
;   extruderDiameter,0.4
;   extruderAutoWidth,0
;   extruderWidth,0.4
;   extrusionMultiplier,0.9
;   extruderUseRetract,1
;   extruderRetractionDistance,4.5
;   extruderExtraRestartDistance,0
;   extruderRetractionZLift,0
;   extruderRetractionSpeed,1800
;   extruderUseCoasting,0
;   extruderCoastingDistance,0.2
;   extruderUseWipe,0
;   extruderWipeDistance,5
;   primaryExtruder,0
;   layerHeight,0.2
;   topSolidLayers,3
;   bottomSolidLayers,3
;   perimeterOutlines,2
;   printPerimetersInsideOut,1
;   startPointOption,2
;   startPointOriginX,0
;   startPointOriginY,0
;   sequentialIslands,0
;   spiralVaseMode,0
;   firstLayerHeightPercentage,90
;   firstLayerWidthPercentage,100
;   firstLayerUnderspeed,0.5
;   useRaft,0
;   raftExtruder,0
;   raftTopLayers,3
;   raftBaseLayers,2
;   raftOffset,3
;   raftSeparationDistance,0.14
;   raftTopInfill,100
;   aboveRaftSpeedMultiplier,0.3
;   useSkirt,1
;   skirtExtruder,0
;   skirtLayers,1
;   skirtOutlines,2
;   skirtOffset,4
;   usePrimePillar,0
;   primePillarExtruder,999
;   primePillarWidth,12
;   primePillarLocation,7
;   primePillarSpeedMultiplier,1
;   useOozeShield,0
;   oozeShieldExtruder,999
;   oozeShieldOffset,2
;   oozeShieldOutlines,1
;   oozeShieldSidewallShape,1
;   oozeShieldSidewallAngle,30
;   oozeShieldSpeedMultiplier,1
;   infillExtruder,0
;   internalInfillPattern,Rectilinear
;   externalInfillPattern,Rectilinear
;   infillPercentage,25
;   outlineOverlapPercentage,15
;   infillExtrusionWidthPercentage,100
;   minInfillLength,5
;   infillLayerInterval,1
;   internalInfillAngles,45,-45
;   overlapInternalInfillAngles,0
;   externalInfillAngles,45,-45
;   generateSupport,1
;   supportExtruder,0
;   supportInfillPercentage,20
;   supportExtraInflation,0
;   supportBaseLayers,0
;   denseSupportExtruder,0
;   denseSupportLayers,0
;   denseSupportInfillPercentage,70
;   supportLayerInterval,1
;   supportHorizontalPartOffset,0.3
;   supportUpperSeparationLayers,1
;   supportLowerSeparationLayers,1
;   supportType,0
;   supportGridSpacing,4
;   maxOverhangAngle,45
;   supportAngles,0
;   temperatureName,Primary Extruder,Heated Bed
;   temperatureNumber,0,0
;   temperatureSetpointCount,1,1
;   temperatureSetpointLayers,1,1
;   temperatureSetpointTemperatures,195,60
;   temperatureStabilizeAtStartup,1,1
;   temperatureHeatedBed,0,1
;   temperatureRelayBetweenLayers,0,0
;   temperatureRelayBetweenLoops,0,0
;   fanLayers,1
;   fanSpeeds,0
;   blipFanToFullPower,0
;   adjustSpeedForCooling,1
;   minSpeedLayerTime,15
;   minCoolingSpeedSlowdown,20
;   increaseFanForCooling,0
;   minFanLayerTime,45
;   maxCoolingFanSpeed,100
;   increaseFanForBridging,0
;   bridgingFanSpeed,100
;   use5D,1
;   relativeEdistances,0
;   allowEaxisZeroing,1
;   independentExtruderAxes,0
;   includeM10123,0
;   stickySupport,1
;   applyToolheadOffsets,0
;   gcodeXoffset,0
;   gcodeYoffset,0
;   gcodeZoffset,0
;   overrideMachineDefinition,1
;   machineTypeOverride,0
;   strokeXoverride,220
;   strokeYoverride,220
;   strokeZoverride,240
;   originOffsetXoverride,0
;   originOffsetYoverride,0
;   originOffsetZoverride,0
;   homeXdirOverride,-1
;   homeYdirOverride,-1
;   homeZdirOverride,-1
;   flipXoverride,1
;   flipYoverride,-1
;   flipZoverride,1
;   toolheadOffsets,0,0|0,0|0,0|0,0|0,0|0,0
;   overrideFirmwareConfiguration,1
;   firmwareTypeOverride,RepRap (Marlin/Repetier/Sprinter)
;   GPXconfigOverride,r2
;   baudRateOverride,115200
;   overridePrinterModels,0
;   printerModelsOverride
;   startingGcode,G28 ; home all axes,G29; autolevel,G1 X0 Y20 Z0.2 F3000 ; get ready to prime,G92 E0 ; reset extrusion distance,G1 X100 E20 F600 ; prime nozzle
;   layerChangeGcode,
;   retractionGcode,
;   toolChangeGcode,
;   endingGcode,M104 S0 ; turn off extruder,M140 S0 ; turn off bed,G1 X0 Y200 F1000 ; prepare for part removal,M84 ; disable motors
;   exportFileFormat,gcode
;   celebration,0
;   celebrationSong,Random Song
;   postProcessing,
;   defaultSpeed,3600
;   outlineUnderspeed,0.5
;   solidInfillUnderspeed,0.8
;   supportUnderspeed,0.8
;   rapidXYspeed,4800
;   rapidZspeed,1000
;   minBridgingArea,50
;   bridgingExtraInflation,0
;   bridgingExtrusionMultiplier,1
;   bridgingSpeedMultiplier,1
;   useFixedBridgingAngle,0
;   fixedBridgingAngle,0
;   applyBridgingToPerimeters,0
;   filamentDiameters,1.75|1.75|1.75|1.75|1.75|1.75
;   filamentPricesPerKg,23|23|23|23|23|23
;   filamentDensities,1.25|1.25|1.25|1.25|1.25|1.25
;   useMinPrintHeight,0
;   minPrintHeight,0
;   useMaxPrintHeight,0
;   maxPrintHeight,0
;   useDiaphragm,0
;   diaphragmLayerInterval,20
;   robustSlicing,1
;   mergeAllIntoSolid,0
;   onlyRetractWhenCrossingOutline,1
;   retractBetweenLayers,1
;   useRetractionMinTravel,0
;   retractionMinTravel,3
;   retractWhileWiping,0
;   onlyWipeOutlines,1
;   avoidCrossingOutline,0
;   maxMovementDetourFactor,3
;   toolChangeRetractionDistance,12
;   toolChangeExtraRestartDistance,-0.5
;   toolChangeRetractionSpeed,600
;   externalThinWallType,0
;   internalThinWallType,2
;   thinWallAllowedOverlapPercentage,10
;   singleExtrusionMinLength,1
;   singleExtrusionMinPrintingWidthPercentage,50
;   singleExtrusionMaxPrintingWidthPercentage,200
;   singleExtrusionEndpointExtension,0.2
;   horizontalSizeCompensation,0
G90
M82
M106 S0
M140 S60
M190 S60
M104 S195 T0
M109 S195 T0
G28 ; home all axes
G29; autolevel
G1 X0 Y20 Z0.2 F3000 ; get ready to prime
G92 E0 ; reset extrusion distance
G1 X100 E20 F600 ; prime nozzle
G92 E0
G1 E-4.5000 F1800
G1 Z0.180 F1000
; process Process1
; layer 1, Z = 0.180
T0
; tool H0.200 W0.400
; skirt
G1 X62.396 Y79.951 F4800
G1 E0.0000 F540
G92 E0
G1 X62.670 Y79.752 E0.0101 F1800
G1 X62.689 Y79.739 E0.0108
G1 X63.379 Y79.317 E0.0350
G1 X63.399 Y79.305 E0.0357
G1 X63.700 Y79.152 E0.0458
G1 X63.722 Y79.142 E0.0465
G1 X64.469 Y78.832 E0.0708
G1 X64.491 Y78.824 E0.0715
G1 X64.812 Y78.720 E0.0816
G1 X64.835 Y78.713 E0.0823
G1 X65.621 Y78.525 E0.1065
G1 X65.644 Y78.520 E0.1072
G1 X65.978 Y78.467 E0.1173
G1 X66.001 Y78.464 E0.1180
G1 X66.723 Y78.408 E0.1397
G1 X66.735 Y78.407 E0.1400
G1 X66.904 Y78.400 E0.1451
G1 X66.916 Y78.400 E0.1455
G1 X153.084 Y78.400 E2.7248
G1 X153.096 Y78.400 E2.7252
G1 X153.265 Y78.407 E2.7302
G1 X153.277 Y78.408 E2.7306
G1 X153.998 Y78.464 E2.7523
G1 X154.022 Y78.467 E2.7530
G1 X154.356 Y78.520 E2.7631
G1 X154.379 Y78.525 E2.7638
G1 X155.165 Y78.713 E2.7880
G1 X155.188 Y78.720 E2.7887
G1 X155.509 Y78.824 E2.7988
G1 X155.531 Y78.832 E2.7995
G1 X156.278 Y79.142 E2.8237
G1 X156.300 Y79.152 E2.8244
G1 X156.601 Y79.305 E2.8346
G1 X156.621 Y79.317 E2.8353
G1 X157.311 Y79.739 E2.8595
G1 X157.330 Y79.752 E2.8602
G1 X157.604 Y79.951 E2.8703
G1 X157.622 Y79.965 E2.8710
G1 X158.237 Y80.491 E2.8952
G1 X158.255 Y80.507 E2.8959
G1 X158.494 Y80.745 E2.9060
G1 X158.510 Y80.763 E2.9067
G1 X159.035 Y81.378 E2.9309
G1 X159.049 Y81.396 E2.9316
G1 X159.248 Y81.670 E2.9418
G1 X159.261 Y81.689 E2.9425
G1 X159.683 Y82.379 E2.9667
G1 X159.695 Y82.399 E2.9674
G1 X159.848 Y82.700 E2.9775
G1 X159.858 Y82.722 E2.9782
G1 X160.168 Y83.469 E3.0024
G1 X160.176 Y83.491 E3.0031
G1 X160.280 Y83.812 E3.0132
G1 X160.287 Y83.835 E3.0139
G1 X160.475 Y84.621 E3.0381
G1 X160.480 Y84.644 E3.0388
G1 X160.533 Y84.978 E3.0489
G1 X160.536 Y85.001 E3.0496
G1 X160.592 Y85.723 E3.0713
G1 X160.593 Y85.735 E3.0717
G1 X160.600 Y85.904 E3.0767
G1 X160.600 Y85.916 E3.0771
G1 X160.600 Y138.776 E4.6594
G1 X160.509 Y138.997 E4.6666
G1 X157.997 Y141.509 E4.7729
G1 X157.776 Y141.600 E4.7801
G1 X62.224 Y141.600 E7.6403
G1 X62.003 Y141.509 E7.6475
G1 X59.491 Y138.997 E7.7538
G1 X59.400 Y138.776 E7.7610
G1 X59.400 Y85.916 E9.3433
G1 X59.400 Y85.904 E9.3436
G1 X59.407 Y85.735 E9.3487
G1 X59.408 Y85.723 E9.3491
G1 X59.464 Y85.001 E9.3707
G1 X59.467 Y84.978 E9.3714
G1 X59.520 Y84.644 E9.3815
G1 X59.525 Y84.621 E9.3823
G1 X59.713 Y83.835 E9.4065
G1 X59.720 Y83.812 E9.4072
G1 X59.824 Y83.491 E9.4173
G1 X59.832 Y83.469 E9.4180
G1 X60.142 Y82.722 E9.4422
G1 X60.152 Y82.700 E9.4429
G1 X60.305 Y82.399 E9.4530
G1 X60.317 Y82.379 E9.4537
G1 X60.739 Y81.689 E9.4779
G1 X60.752 Y81.670 E9.4786
G1 X60.951 Y81.396 E9.4887
G1 X60.965 Y81.378 E9.4894
G1 X61.490 Y80.763 E9.5137
G1 X61.506 Y80.745 E9.5144
G1 X61.745 Y80.507 E9.5245
G1 X61.763 Y80.491 E9.5252
G1 X62.378 Y79.965 E9.5494
G1 X62.396 Y79.951 E9.5501
G1 X62.638 Y80.270 F4800
G92 E0
G1 X62.898 Y80.080 E0.0096 F1800
G1 X62.905 Y80.076 E0.0099
G1 X63.581 Y79.662 E0.0336
G1 X63.588 Y79.658 E0.0338
G1 X63.875 Y79.512 E0.0435
G1 X63.882 Y79.508 E0.0437
G1 X64.614 Y79.205 E0.0675
G1 X64.622 Y79.202 E0.0677
G1 X64.928 Y79.103 E0.0773
G1 X64.936 Y79.100 E0.0776
G1 X65.707 Y78.915 E0.1013
G1 X65.715 Y78.914 E0.1015
G1 X66.033 Y78.863 E0.1112
G1 X66.041 Y78.862 E0.1114
G1 X66.751 Y78.807 E0.1328
G1 X66.755 Y78.806 E0.1329
G1 X66.916 Y78.800 E0.1377
G1 X66.920 Y78.800 E0.1378
G1 X153.080 Y78.800 E2.7170
G1 X153.084 Y78.800 E2.7171
G1 X153.245 Y78.806 E2.7219
G1 X153.249 Y78.807 E2.7220
G1 X153.959 Y78.862 E2.7433
G1 X153.967 Y78.863 E2.7436
G1 X154.285 Y78.914 E2.7532
G1 X154.293 Y78.915 E2.7535
G1 X155.064 Y79.100 E2.7772
G1 X155.072 Y79.103 E2.7774
G1 X155.378 Y79.202 E2.7871
G1 X155.386 Y79.205 E2.7873
G1 X156.118 Y79.508 E2.8110
G1 X156.125 Y79.512 E2.8113
G1 X156.412 Y79.658 E2.8209
G1 X156.419 Y79.662 E2.8212
G1 X157.095 Y80.076 E2.8449
G1 X157.102 Y80.080 E2.8451
G1 X157.362 Y80.270 E2.8548
G1 X157.369 Y80.275 E2.8550
G1 X157.971 Y80.790 E2.8787
G1 X157.977 Y80.795 E2.8790
G1 X158.205 Y81.023 E2.8886
G1 X158.210 Y81.029 E2.8889
G1 X158.725 Y81.632 E2.9126
G1 X158.730 Y81.638 E2.9128
G1 X158.920 Y81.898 E2.9225
G1 X158.924 Y81.905 E2.9227
G1 X159.338 Y82.581 E2.9464
G1 X159.342 Y82.588 E2.9467
G1 X159.488 Y82.875 E2.9563
G1 X159.492 Y82.882 E2.9566
G1 X159.795 Y83.614 E2.9803
G1 X159.798 Y83.622 E2.9805
G1 X159.897 Y83.928 E2.9902
G1 X159.900 Y83.936 E2.9904
G1 X160.085 Y84.707 E3.0141
G1 X160.086 Y84.715 E3.0144
G1 X160.137 Y85.033 E3.0240
G1 X160.137 Y85.041 E3.0243
G1 X160.193 Y85.751 E3.0456
G1 X160.194 Y85.755 E3.0457
G1 X160.200 Y85.916 E3.0505
G1 X160.200 Y85.919 E3.0506
G1 X160.200 Y138.697 E4.6305
G1 X160.170 Y138.770 E4.6329
G1 X157.770 Y141.170 E4.7344
G1 X157.697 Y141.200 E4.7368
G1 X62.303 Y141.200 E7.5923
G1 X62.230 Y141.170 E7.5947
G1 X59.830 Y138.770 E7.6963
G1 X59.800 Y138.697 E7.6987
G1 X59.800 Y85.919 E9.2785
G1 X59.800 Y85.916 E9.2786
G1 X59.806 Y85.755 E9.2834
G1 X59.807 Y85.751 E9.2836
G1 X59.863 Y85.041 E9.3049
G1 X59.863 Y85.033 E9.3051
G1 X59.914 Y84.715 E9.3148
G1 X59.915 Y84.707 E9.3150
G1 X60.100 Y83.936 E9.3387
G1 X60.103 Y83.928 E9.3390
G1 X60.202 Y83.622 E9.3486
G1 X60.205 Y83.614 E9.3488
G1 X60.508 Y82.882 E9.3726
G1 X60.512 Y82.875 E9.3728
G1 X60.658 Y82.588 E9.3825
G1 X60.662 Y82.581 E9.3827
G1 X61.076 Y81.905 E9.4064
G1 X61.080 Y81.898 E9.4067
G1 X61.270 Y81.638 E9.4163
G1 X61.275 Y81.632 E9.4165
G1 X61.790 Y81.029 E9.4403
G1 X61.795 Y81.023 E9.4405
G1 X62.023 Y80.795 E9.4502
G1 X62.029 Y80.790 E9.4504
G1 X62.631 Y80.275 E9.4741
G1 X62.638 Y80.270 E9.4744
G92 E0
G1 E-4.5000 F1800
; inner perimeter
G1 X65.590 Y84.060 F4800
G1 E0.0000 F1800
G92 E0
G1 X65.911 Y83.863 E0.0113 F1350
G1 X66.259 Y83.719 E0.0225
G1 X66.625 Y83.631 E0.0338
G1 X67.024 Y83.600 E0.0458
G1 X152.976 Y83.600 E2.6187
G1 X153.375 Y83.631 E2.6307
G1 X153.741 Y83.719 E2.6419
G1 X154.089 Y83.863 E2.6532
G1 X154.410 Y84.060 E2.6645
G1 X154.696 Y84.304 E2.6757
G1 X154.940 Y84.590 E2.6870
G1 X155.137 Y84.911 E2.6983
G1 X155.281 Y85.259 E2.7095
G1 X155.369 Y85.625 E2.7208
G1 X155.400 Y86.024 E2.7328
G1 X155.400 Y136.400 E4.2407
G1 X64.600 Y136.400 E6.9587
G1 X64.600 Y86.024 E8.4667
G1 X64.631 Y85.625 E8.4787
G1 X64.719 Y85.259 E8.4900
G1 X64.863 Y84.911 E8.5012
G1 X65.060 Y84.590 E8.5125
G1 X65.304 Y84.304 E8.5238
G1 X65.590 Y84.060 E8.5350
; outer perimeter
G1 X65.355 Y83.735 F4800
G92 E0
G1 X65.729 Y83.506 E0.0132 F900
G1 X66.135 Y83.338 E0.0263
G1 X66.562 Y83.235 E0.0394
G1 X67.008 Y83.200 E0.0528
G1 X152.992 Y83.200 E2.6267
G1 X153.438 Y83.235 E2.6401
G1 X153.865 Y83.338 E2.6532
G1 X154.271 Y83.506 E2.6664
G1 X154.645 Y83.735 E2.6795
G1 X154.979 Y84.021 E2.6927
G1 X155.265 Y84.355 E2.7058
G1 X155.494 Y84.729 E2.7190
G1 X155.662 Y85.135 E2.7321
G1 X155.765 Y85.562 E2.7453
G1 X155.800 Y86.008 E2.7587
G1 X155.800 Y136.800 E4.2791
G1 X64.200 Y136.800 E7.0210
G1 X64.200 Y86.008 E8.5415
G1 X64.235 Y85.562 E8.5548
G1 X64.338 Y85.135 E8.5680
G1 X64.506 Y84.729 E8.5811
G1 X64.735 Y84.355 E8.5943
G1 X65.021 Y84.021 E8.6074
G1 X65.355 Y83.735 E8.6206
; inner perimeter
G1 X70.281 Y89.047 F4800
G92 E0
G1 X69.975 Y89.365 E0.0132 F1350
G1 X69.728 Y89.731 E0.0264
G1 X69.546 Y90.133 E0.0396
G1 X69.435 Y90.560 E0.0528
G1 X69.398 Y91.000 E0.0661
G1 X69.435 Y91.440 E0.0793
G1 X69.546 Y91.867 E0.0925
G1 X69.728 Y92.269 E0.1057
G1 X69.975 Y92.635 E0.1189
G1 X70.281 Y92.953 E0.1321
G1 X70.636 Y93.216 E0.1453
G1 X71.030 Y93.415 E0.1585
G1 X71.452 Y93.544 E0.1718
G1 X71.890 Y93.600 E0.1850
G1 X72.331 Y93.581 E0.1982
G1 X72.762 Y93.488 E0.2114
G1 X73.172 Y93.324 E0.2246
G1 X73.547 Y93.092 E0.2378
G1 X73.879 Y92.801 E0.2510
G1 X74.156 Y92.457 E0.2642
G1 X74.371 Y92.072 E0.2774
G1 X74.518 Y91.656 E0.2907
G1 X74.591 Y91.233 E0.3035
G1 X74.601 Y91.000 E0.3105
G1 X74.591 Y90.767 E0.3175
G1 X74.518 Y90.344 E0.3303
G1 X74.371 Y89.928 E0.3435
G1 X74.156 Y89.543 E0.3567
G1 X73.879 Y89.199 E0.3699
G1 X73.547 Y88.908 E0.3831
G1 X73.171 Y88.676 E0.3964
G1 X72.762 Y88.512 E0.4096
G1 X72.331 Y88.419 E0.4228
G1 X71.890 Y88.400 E0.4360
G1 X71.452 Y88.456 E0.4492
G1 X71.030 Y88.585 E0.4624
G1 X70.636 Y88.784 E0.4756
G1 X70.281 Y89.047 E0.4888
; outer perimeter
G1 X70.546 Y89.348 F4800
G92 E0
G1 X70.288 Y89.617 E0.0112 F900
G1 X70.079 Y89.927 E0.0223
G1 X69.925 Y90.267 E0.0335
G1 X69.831 Y90.628 E0.0447
G1 X69.799 Y91.000 E0.0559
G1 X69.831 Y91.372 E0.0670
G1 X69.925 Y91.733 E0.0782
G1 X70.079 Y92.073 E0.0894
G1 X70.288 Y92.383 E0.1006
G1 X70.546 Y92.652 E0.1117
G1 X70.846 Y92.874 E0.1229
G1 X71.179 Y93.042 E0.1341
G1 X71.536 Y93.151 E0.1453
G1 X71.907 Y93.199 E0.1564
G1 X72.280 Y93.183 E0.1676
G1 X72.644 Y93.104 E0.1788
G1 X72.991 Y92.965 E0.1899
G1 X73.309 Y92.769 E0.2011
G1 X73.589 Y92.523 E0.2123
G1 X73.823 Y92.232 E0.2235
G1 X74.005 Y91.906 E0.2346
G1 X74.130 Y91.555 E0.2458
G1 X74.192 Y91.191 E0.2569
G1 X74.200 Y91.000 E0.2626
G1 X74.192 Y90.809 E0.2683
G1 X74.130 Y90.445 E0.2793
G1 X74.005 Y90.094 E0.2905
G1 X73.823 Y89.768 E0.3017
G1 X73.589 Y89.477 E0.3129
G1 X73.309 Y89.231 E0.3240
G1 X72.991 Y89.035 E0.3352
G1 X72.644 Y88.896 E0.3464
G1 X72.280 Y88.817 E0.3576
G1 X71.907 Y88.801 E0.3687
G1 X71.536 Y88.849 E0.3799
G1 X71.179 Y88.958 E0.3911
G1 X70.846 Y89.126 E0.4023
G1 X70.546 Y89.348 E0.4134
G92 E0
G1 E-4.5000 F1800
; inner perimeter
G1 X79.400 Y100.200 F4800
G1 E0.0000 F1800
G92 E0
G1 X79.400 Y133.000 E0.9818 F1350
G1 X150.600 Y133.000 E3.1131
G1 X150.600 Y100.200 E4.0950
G1 X79.400 Y100.200 E6.2263
; outer perimeter
G1 X79.800 Y100.600 F4800
G92 E0
G1 X79.800 Y132.600 E0.9579 F900
G1 X150.200 Y132.600 E3.0653
G1 X150.200 Y100.600 E4.0231
G1 X79.800 Y100.600 E6.1305
; inner perimeter
G1 X145.435 Y91.440 F4800
G92 E0
G1 X145.546 Y91.867 E0.0132 F1350
G1 X145.728 Y92.269 E0.0264
G1 X145.975 Y92.635 E0.0396
G1 X146.281 Y92.953 E0.0528
G1 X146.636 Y93.216 E0.0661
G1 X147.030 Y93.415 E0.0793
G1 X147.452 Y93.544 E0.0925
G1 X147.890 Y93.600 E0.1057
G1 X148.331 Y93.581 E0.1189
G1 X148.762 Y93.488 E0.1321
G1 X149.171 Y93.324 E0.1453
G1 X149.547 Y93.092 E0.1585
G1 X149.879 Y92.801 E0.1718
G1 X150.156 Y92.457 E0.1850
G1 X150.371 Y92.072 E0.1982
G1 X150.518 Y91.656 E0.2114
G1 X150.593 Y91.221 E0.2246
G1 X150.593 Y90.779 E0.2378
G1 X150.518 Y90.344 E0.2510
G1 X150.371 Y89.928 E0.2642
G1 X150.156 Y89.543 E0.2774
